X:5811
T:Scartaglen Polka, The
T:Scairteach an Ghlinne
T:John Egan's
O:england
S:as recorded by Gerry Harrington and Eoghan O'Sullivan (except chords)
D:Sceal Eile, Mulligan LUNCD 059, 1993, track 9, tune 3
N:transcribed by Alan Ng without ornaments. Chord symbols added by Dave Fallow
R:polka
E:13
M:2/4
K:DMaj
L:1/16
"D"A2F2 A4|"G"B2G2 B4|"A"cBAB c2d2|"D"e2d2 "G"BcdB|"D"A2F2 A4|"G"B2G2 B4|"A"cBAB c2d2|"D"e2d2 d4:|
E:16
|:"D"A2d2 f4|"A"f2e2 e4|e2f2 g2a2|"G"b2a2 "D"a2g2|f3f f2g2|"A"f2e2 e4|e2f2 g2c2|"D"e2d2 d4:|


